X:1
T:In Bethlehem, That Noble Place
T:In Bethlehem, That Noble Place
T:Frederick Arthur Gore-Ouseley, 1871
T:James Ryman, 1492
T:Public Domain Courtesy of the Cyber Hymnal™
C:Frederick Arthur Gore-Ouseley, 1871
Z:Public Domain
Z:Courtesy of the Cyber Hymnal™
%%score ( 1 2 ) ( 3 4 )
L:1/8
Q:1/4=104
M:2/4
K:D
V:1 treble 
V:2 treble 
V:3 bass 
V:4 bass 
V:1
"^Semi-Chorus" [A,D]2 | [A,D]3 [B,D] | [A,D]2 D2 | [DF]2 A2 | [GB]2 z [GB] | (AB) (AG) | %6
w: 1.~In|Beth- le-|hem, that|no- ble|place, As|by * the *|
w: 2.~On|Christ- mas|night, an|an- gel|told The|shep- * herds *|
w: 3.~The|shep- herds|were en-|com- passed|right, A-|bout * them *|
w: 4.~“No|cause have|ye to|be a-|fraid, For|why? * this *|
w: 5.~“And|thus in|faith find|Him, ye|shall, Laid|poor- * ly *|
 (FG) [DA]2 | (Bc) (de) | [Ec]2 (AA) | B2 A2 | [Dd]3 [FA] | [GB]2 A2 | [Fd]2 [Ee]2 | [Ec]2 [EA]2 | %14
w: pro- * phet|said * it *|was, Of~the *|vir- gin|Ma- ry,|filled with|grace, Sal-|va- tor|
w: watch- * ing|by * their *|fold, In *|Beth- le-|hem, full|nigh the|wold, Sal-|va- tor|
w: shone * a|glor- * ious *|light, “Dread *|ye naught,”|said the|an- gel|bright, “Sal-|va- tor|
w: day * is|Je- * sus *|laid On *|Ma- ry’s|lap, that|gen- tle|maid: Sal-|va- tor|
w: in * an|ox’s * ~ *|stall.” The *|shep- herds|then laud-|ed God|all, Qui-|a Sal-|
 d2 [Ac]2 | (cA) [^GB]2 | A4 ||"^Refrain" (AB) (cd) | (ed) (cd) | [Ae]2 [Af]2 | %20
w: mun- di|na- * tus|est.||||
w: mun- di|na- * tus|est.||||
w: mun- di|na- * tus|est.”|Be * we *|mer- * ry *|in this|
w: mun- di|na- * tus|est.”||||
w: va- tor|na- * tus|est.||||
 !fermata![Fd]2 z [GB] | [EA]2 [Dd]2 | [Ge]2 f2 | e3 (z d) | [Fd]2 |] %25
w: |||||
w: |||||
w: feast, In|quo Sal-|va- tor|na- *||
w: |||||
w: |||||
V:2
 x2 | x4 | x2 D2 | x2 (EF) | x4 | E2 E2 | D2 x2 | G2 F2 | x2 AA | B2 A2 | x4 | x2 A2 | x4 | x4 | %14
 (F^G) x2 | A2 x2 | A4 || A2 A2 | A2 A2 | x4 | x4 | x4 | x2 (FG) | (AB) G2 x | x2 |] %25
V:3
 [D,F,]2 | [D,F,]3 [D,G,] | [D,F,]2 F,2 | [B,,B,]2 [A,,C]2 | [G,,D]2 z [B,,D] | [C,A,]2 [C,A,]2 | %6
 [C,A,]2 [F,D]2 | [E,G,]2 [D,A,]2 | [A,,A,]2 A,A, | B,2 A,2 | D3 [D,D] | [G,D]2 [F,D]2 | %12
 [B,D]2 [^G,B,]2 | [A,C]2 [C,E]2 | (A,B,) (CD) | (EF) (ED) | [A,,C]4 || (CD) (ED) | (CD) (ED) | %19
 [A,C]2 [F,C]2 | !fermata![B,D]2 z [G,D] | [G,C]2 [F,A,]2 | (B,C) [D,D]2 | [A,D]2 [A,,A,C]2 x | %24
 [D,A,D]2 |] %25
V:4
 x2 | x4 | x2 D,C, | x4 | x4 | x4 | x4 | x4 | x2 A,A, | B,2 A,2 | D3 x | x4 | x4 | x4 | D,2 A,,2 | %15
 E,2 E,2 | x4 || A,2 A,2 | A,2 A,2 | x4 | x4 | x4 | E,2 x2 | x5 | x2 |] %25

